X:1
T:Coppélia Waltz
C:Léo Delibes
M:3/4
L:1/4
Q:1/4=160
K:Db
A | d c B | A F A | B A G | F3 | A c d | c B A | B A G | A3 | A B c | d3 | d c B | A2 |]
